X:1
T:Visa i folkton
T: W. Peterson-Berger (1867-1942) Solosång satt för blandad kör av tonsättaren 1927
T:Visa i folkton
T:©CPDL Edition may be freely distributed, duplicated, performed and recorded PA Aglert
T:©CPDL Edition may be freely distributed, duplicated, performed and recorded PA Aglert
T:©CPDL Edition may be freely distributed, duplicated, performed and recorded PA Aglert
C:W. Peterson-Berger (1867-1942)
Z:H
Z:©CPDL Edition may be freely distributed, duplicated, performed and recorded
Z:PA Aglert
%%score [ 1 2 ( 3 4 ) ( 5 6 ) ]
L:1/8
Q:1/4=72
M:3/4
K:Bb
V:1 treble nm="Soprano"
V:2 treble nm="Alto"
V:3 treble-8 nm="Tenor"
V:4 treble-8 
V:5 bass nm="Bass"
V:6 bass 
V:1
"^Långsamt" z6 | z6 | z6 |!p! GA Bc dB | AB cA G2 | (^F>A d4) |!mp! GA Bc dB | Ac fc d2 |!p! F6 | %9
w: |||När jag för mig själv i|mör- ka sko- gen går,|å, * *|tän- ker jag på vän- nen|som jag ald- rig får.|å,|
[M:2/4] dd dd | cc dc | B4 | AA BA | GG AG | FF GF | E2 D2 | cc Bc | dg GA |"^rit." Bc"^ten." AG | %19
w: Tå- ren bör- jar|rin- na, hjär- tat|slå.|Ald- rig kan man|glöm- ma, den man|en gång hål- lit|å, *|ald- rig kan man|glöm- ma, den man|en gång hål- lit|
[M:3/4]!p!"^a tempo" (G6- |!<(! G4-!<)!!>(! G!>)!!<(!D!<)! | A6) |!p!!>(! GA Bc dB!>)! | AB cA G2 | %24
w: å,|||Äng- ar, berg och dal och|skog med fåg- lar små,|
 ^F>A d4 | GA Bc dB | Ac fc d2 | F6 | dd dd cc | dc BB cB | AA BA GG | AG FF GF | EE DD"^rit." GG | %33
w: å, * *|blå- a him- me- len med|kla- ra stjär- nor på,||allt vad ha- vet göm- mer,|pär- lor och ko- ral- ler,|sva- ne- dun av skum och|kla- ras- te kris- tal- ler,|gräs och blom- mor all och|
 EE DD"^ten." c2 |"^a tempo"!p! B2 G4 |!pp! B2 G4 |!f! ge dc Bc |!>(! dB A!>)!G!mf! A2 | %38
w: lin- de- lov på kvist,|ja, *|ja, *|all- ting gå- ve jag för|vän- nen som jag mist,|
!p! cc Ac BG | D^F!pp! A4 |!p! G6!mf! |!p!!<(! EF GA BA/G/!<)! |!>(! A2 !fermata!G4!>)!!pp! |] %43
w: lil- la vän- nen kär från|barn- doms- da-|||* gar.|
V:2
 z6 | z6 | z6 |!p! B,D G2 G2 | G4 G2 | ^F4 F2 |!mp! D2 G2 G2 | G2 A2 F2 |!p! E2 E2 D2 | %9
w: |||När * jag i|sko- gen|går, jag|tän- ker på|vän- nen jag|ald- rig får.|
[M:2/4] B2 B2 | A2 A2 | G2 G2 | F2 F2 | E4 | D2 D2 | C2 B,2 | C2 G2 | G2 G2 | GG ^FG | %19
w: Tå- ren|bör- jar|rin- na,|hjär- tat|slå.|Ald- rig|kan man|glöm- ma,|den man|en gång hål- lit|
[M:3/4]!p! (G6- |!<(! G4-!<)!!>(! G!>)!!<(!D | G2!<)!!>(! ^F4)!>)! |!p! GD G2 G2 | G4 G2 | ^F4 F2 | %25
w: å,|||Äng- ar, berg och|dal och|gar. sko-|
 D2 G2 G2 | G2 A2 F2 | E2 E2 D2 | B2 B2 A2 | A2 G2 G2 | F2 F2 E2 | E2 D2 D2 | C2 B,2 C2 | %33
w: him- me- len|blå- a med|stjär- nor på,|all- ting jag|gå- ve för|vän- nen jag|mist, lil- la|vän- nen från|
 C2 B,2 C2 |!p! ^C4 =E2 |!pp! ^C4 =E2 |!f! [!courtesy!_EG]6 |!>(! D4!>)!!mf! ^C2 | %38
w: barn- * doms-|da- *|gar. *|vän-|nen från|
!p! (!courtesy!=C2 D2) D2 | C6!pp! |!p!!<(! B,A, B,!<)!C!mf! D2 |!p! C3 E GD | %42
w: barn- * doms-|da-|||
!>(! C2 !fermata!B,4!>)!!pp! |] %43
w: * gar.|
V:3
!p!!<(! (GA Bc d2)!<)! |!p! (E!<(!F GA BA/G/!<)! |!>(! A6)!>)! |!p! G2 GA BG | [Ec]4 [DB]2 | %5
w: Å, * * * *|å, * * * * * *||När jag i mör- ka|sko- gen|
w: |||||
 [Ac]4 [Ac]2 |!mp! Bc dA Bd | (e2 d)!mf!e (d2 | A)c fc d2 |[M:2/4] f2 =e2 | =e2 d2 | d2 c2 | %12
w: går, då|tän- ker jag på vän- nen|som * jag ald-|* * rig * får.|Tå- ren|bör- jar|rin- na,|
w: ||* * * ald-|* rig, ald- rig får.||||
 c2 B2 | (B2 A2) | A2 G2 | G2 G2 | G2 (GA) | B2 (Bc) | de c2 |[M:3/4]!mf! (G!<(!A Bc d2)!<)! | %20
w: hjär- tat|slå. *|Ald- rig|kan man|glöm- ma, *|den man *|hål- lit å,|å. * * * *|
w: ||||||||
!p!!<(! (EF G!<)!!>(!A B!>)!!<(!A/G/!<)! | e2!>(! d4)!>)! |!p! B2 GA BG | [Ec]4 [DB]2 | %24
w: å. * * * * * *||Äng- ar, och berg och|dal och|
w: ||||
 [Ac]4 [Ac]2 | Bc dA Bd | e2 de d2 | Ac fc d2 | f2 =e2 e2 | d2 d2 c2 | c2 B2 B2 | A2 A2 G2 | %32
w: gar. sko-|blå- a him- me- len med|kla- * ra stjär-|* * nor * på,|all- ting jag|gå- ve för|vän- nen jag|mist, lil- la|
w: ||* * * kla-|* ra stjär- nor på,|||||
 G2 G2 A2 | G4 G2 |!p! G2 B4 |!pp! G2 B4 |!f! A6 |!>(! G4!>)!!mf! G2 |!p! (E2 D2) G2 | ^FA!pp! F4 | %40
w: vän- nen från|barn- doms-|da- *|gar. *|vän-|* nen|kär * från|barn- doms- da-|
w: ||||||||
!p!!<(! GA B!<)!c!mf! d2 |!p! e4 d2 |!>(! ^F2!>)! !fermata!G4!pp! |] %43
w: ||* gar.|
w: |||
V:4
 GA Bc d2 | EF GA GD | G2 ^F4 | x6 | x6 | x6 | x6 | x6 | A2 A2 B2 |[M:2/4] x4 | x4 | x4 | x4 | x4 | %14
 x4 | x4 | x4 | x4 | x4 |[M:3/4] x6 | x6 | x6 | x6 | x6 | x6 | x6 | x6 | A2 A2 B2 | x6 | x6 | x6 | %31
 x6 | x6 | x6 | x6 | x6 | x6 | x6 | x6 | x6 | x6 | x6 | x6 |] %43
V:5
!p!!<(! G,6!<)! |!p! (E,4!<(! D,2!<)! |!>(! E,2!>)! D,4) |!p!"^con bocca ch." (D,4 (G,2) | (G,6) | %5
w: Å,|å, *||||
 D,6) |!mp! (G,4 =E,2 | F,4 B,2) |!p! F,6 |[M:2/4] B,2 G,2 | A,2 F,2 | G,2 =E,2 | F,2 D,2 | %13
w: ||||Tå- ren|bör- jar|rin- na,|hjär- tat|
 (!courtesy!_E,2 C,2) | D,2 =B,,2 | C,2 D,2 | E,2 E,2 | D,2 D,2 | D,2 D,2 |[M:3/4]!p! G,6 | %20
w: slå. *|Ald- rig|kan man|glöm- ma,|den man|hål- lit|å,|
!<(! (E,4!<)!!>(! D,2!>)! | C,2!>(! D,4)!>)! |"^con bocca ch."!p! (D,4 G,2) | (G,6 | D,6) | %25
w: å. *|||||
 G,4 =E,2 | F,4 B,2 | F,6 | B,2 G,2 A,2 | F,2 G,2 !courtesy!_E,2 | F,2 D,2 E,2 | C,2 D,2 =B,,2 | %32
w: |||all- ting jag|gå- ve för|vän- nen jag|mist, lil- la|
 C,2 D,2 E,2 | C,2 D,2 E,2 |!p! =E,4 ^C,2 |!pp! =E,4 ^C,2 |!f! !courtesy!=C,6 | %37
w: vän- nen från|barn- * doms-|da- *|gar. *|vän-|
!>(! B,,4!>)!!mf! A,,2 |!p! (G,,2 ^F,,2) (G,,B,,) | (D,6 |!p!!<(! G,6!<)! |!p! G,6) | %42
w: nen från|barn- * doms- *|da-|||
!>(! !fermata!D,6!>)!!pp! |] %43
w: gar.|
V:6
 (E,4 B,,2) | C,4 G,,B,, | C,2 D,4 | G,,4 G,2 | G,,6- | G,,6 | G,4 =E,2 | F,4 B,2 | B,,6 | %9
[M:2/4] x4 | x4 | x4 | x4 | x4 | x4 | x4 | x4 | x4 | x4 |[M:3/4] (E,4 B,,2) | C,4 G,,!<(!B,,!<)! | %21
 C,2 D,4 | G,,4 G,2 | G,,6- | G,,6 | x6 | x6 | B,,6 | x6 | x6 | x6 | x6 | x6 | x6 | x6 | x6 | x6 | %37
 x6 | x6 | (D,2!pp! G,,4 | E,4!mf! B,,2 | C,4 G,,B,, | D,2) !fermata!G,,4 |] %43

